X:1
T:Tom McLaren's Reel
M:4/4
L:1/8
R:reel
C:Robin Flower, Libby McLaren
N:Copyright 2001-2003 Flower & McLaren
K:A Dorian
|:AEGA EGAB|cBdB cBAG|AEGA EGAB|cBdB G4|AEGA EGAB|
cBdB ecge|(3agf ge fdec|(3dcB AG A4:|
|:Ae a4 gf|(3gfe fd e2 ec|Ae a4 gf|g2 a2 b2 ec|
Ae a4 gf|(3gfe fd e2 eg|(3agf ge fdec|(3dcB AG A4:|
"Tag"
(3agf ge fd|
M:4/4
(3agf ge fdec|(3agf ge fdec|(3dcB AG A4||

